X:10
T:Hessian Camp. Ca1758.034
M:2/4
L:1/8
Q:1/4=100
B:Cahusac,T. 24 Country Dances for the Year 1758
Z:vmp.Mike Hicken 2015 www.village-music-project.org.uk
N:* There is no repeat sign shown here in the original.
K:D
d2e2|fd2e|f2g2|af2a|af2a|ge2g|fdgf|{f}e4 :|
|:fdfa |eceg|fdgf|{f}e4|d/e/f/g/ aa|d/e/f/g/ aa|bage|d4 "*":|
W:
W: The 1st. and 2d Cu. Right hands across .|
W: Left back again :|  gallop down and up and cast
W: off .|  and Right and Left at top :|

